X: 20221
Q: "Slow"
M: C
L: 1/8
K: G
d2  {f}e>d  d2  g>e  | {e}d2 BG {B}A2 B>c |\
d2  {f}e>d  d2 (g>e) | (d<B) (TA>B) G2 {cBA}B>c |
d2 ({f}e>d) d2  g>e  | {e}d2 {c}B{A}G {B}A2 {cBA}B>c |\
d2  {f}e>d  d2  g>e  | (d<B) TA>B G2 :||: (d3/e//f//) |
(gf)  (ed)  d2 (ce)  | {e}d2 {c}B{A}G {B}A2 (d3/e//f//) |\
(gf)  (ed)  d2  ce   | (d<B) TA>B G2 (d3/e//f//) |
(gf)  (ed)  d2  c>e  | {e}d2 {c}B{A}G {B}A2 {cBA}B>c |\
(de)  (dc) (B>d) Hg2 ({fgag}f/<e/) | (d<B) TA>B | G2 :|


